public/images/Logo.svg

<?xml version="1.0" standalone="no"?>
<!DOCTYPE svg PUBLIC "-//W3C//DTD SVG 20010904//EN"
 "http://www.w3.org/TR/2001/REC-SVG-20010904/DTD/svg10.dtd">
<svg version="1.0" xmlns="http://www.w3.org/2000/svg"
 width="2816.000000pt" height="1536.000000pt" viewBox="0 0 2816.000000 1536.000000"
 preserveAspectRatio="xMidYMid meet">

<g transform="translate(0.000000,1536.000000) scale(0.100000,-0.100000)"
fill="#000000" stroke="none">
<path d="M13880 12374 c-236 -27 -366 -54 -608 -123 -447 -129 -909 -413
-1258 -772 -251 -260 -430 -535 -598 -922 -141 -323 -227 -750 -227 -1122 0
-640 194 -1220 593 -1775 159 -221 432 -484 689 -662 418 -290 896 -464 1407
-513 502 -48 1018 39 1487 253 448 204 883 563 1175 972 68 95 195 300 218
353 28 64 2 155 -53 181 -76 36 -149 13 -191 -62 -97 -172 -126 -218 -193
-312 -109 -154 -185 -242 -336 -388 -131 -127 -313 -270 -451 -354 -283 -172
-647 -303 -999 -359 -185 -29 -549 -32 -725 -5 -394 59 -715 171 -1055 369
-142 82 -371 263 -499 395 -199 203 -260 282 -410 527 -224 368 -350 768 -385
1225 -17 212 20 567 83 818 90 352 276 722 511 1012 110 136 326 350 445 442
330 254 703 428 1091 507 241 50 631 65 883 36 480 -57 940 -251 1337 -566
175 -138 418 -398 530 -565 84 -126 137 -210 157 -251 12 -22 37 -54 57 -71
31 -27 43 -32 89 -32 50 0 56 3 90 40 30 34 36 47 36 85 0 25 -6 60 -13 78
-36 86 -215 349 -347 512 -62 76 -312 326 -388 388 -222 181 -513 353 -769
456 -190 77 -465 151 -693 186 -100 16 -588 30 -680 19z"/>
<path d="M13980 11680 c-138 -13 -228 -28 -375 -61 -172 -40 -247 -67 -423
-150 -238 -113 -437 -242 -496 -322 -42 -56 -14 -155 54 -190 59 -30 98 -18
205 62 157 118 360 225 550 289 254 85 566 126 803 104 370 -33 750 -174 1027
-379 50 -36 153 -130 231 -207 143 -144 241 -276 330 -443 49 -94 82 -123 140
-123 87 0 134 47 134 135 0 79 -97 250 -261 458 -202 257 -441 446 -754 598
-226 109 -447 178 -685 213 -134 20 -358 27 -480 16z"/>
<path d="M12253 10629 c-38 -11 -66 -46 -122 -149 -78 -146 -177 -425 -210
-590 -12 -59 -36 -258 -46 -380 -8 -101 10 -339 40 -509 31 -176 106 -403 191
-576 73 -149 103 -184 165 -195 134 -25 199 99 120 226 -74 121 -165 365 -201
538 -98 480 -32 972 183 1361 64 115 72 169 33 220 -41 53 -93 72 -153 54z"/>
<path d="M13234 10530 c-167 -44 -241 -112 -279 -260 -31 -118 -2 -227 87
-325 52 -58 116 -95 202 -120 131 -38 342 3 467 90 59 41 329 300 329 315 0
16 -156 154 -226 200 -73 48 -178 88 -282 109 -81 17 -217 12 -298 -9z"/>
<path d="M14745 10536 c-116 -27 -228 -75 -300 -128 -38 -29 -180 -163 -315
-298 -248 -250 -312 -302 -451 -371 -97 -49 -188 -69 -311 -69 -137 0 -234 29
-342 101 -91 61 -133 110 -183 214 -36 75 -38 86 -38 175 0 52 3 107 8 123 12
43 -4 32 -59 -40 -62 -81 -92 -141 -128 -248 -77 -230 -52 -444 80 -669 50
-86 51 -87 796 -838 389 -393 417 -420 483 -450 117 -54 227 -49 351 18 58 31
1124 1094 1199 1195 59 80 106 174 137 269 20 65 23 96 23 225 0 141 -2 155
-32 245 -51 156 -142 287 -272 390 -77 62 -148 99 -261 135 -104 34 -286 44
-385 21z"/>
<path d="M15959 8575 c-14 -7 -38 -38 -54 -67 -159 -295 -389 -556 -640 -725
-266 -179 -523 -278 -855 -329 -498 -77 -1066 80 -1508 418 -49 37 -71 48
-100 48 -76 0 -132 -60 -132 -143 0 -53 18 -79 98 -141 227 -174 485 -304 754
-380 253 -72 322 -81 628 -81 312 0 393 11 635 84 378 115 670 289 951 569
209 207 424 525 424 625 0 103 -111 171 -201 122z m-3118 -962 c13 -16 12 -17
-3 -4 -17 13 -22 21 -14 21 2 0 10 -8 17 -17z"/>
<path d="M13805 5664 c-132 -21 -276 -84 -362 -159 -86 -76 -168 -215 -205
-353 -18 -65 -21 -107 -22 -267 -1 -220 8 -266 79 -411 123 -250 402 -385 737
-354 116 11 182 27 260 62 234 108 353 295 380 598 23 255 -29 478 -150 643
-50 66 -83 95 -175 149 -114 67 -206 90 -372 93 -77 2 -153 1 -170 -1z m260
-276 c177 -45 267 -217 268 -513 0 -137 -15 -220 -55 -298 -31 -61 -103 -132
-161 -158 -45 -21 -67 -24 -172 -24 -108 0 -125 2 -175 26 -93 44 -155 122
-193 244 -18 59 -22 94 -22 225 0 167 11 223 62 323 81 160 249 226 448 175z"/>
<path d="M15508 5660 c-185 -33 -322 -110 -427 -239 -195 -239 -226 -685 -68
-984 50 -95 148 -187 258 -241 115 -57 208 -76 367 -76 116 0 228 17 355 55
l57 16 0 135 c0 74 -3 134 -7 134 -5 0 -55 -14 -113 -32 -97 -29 -117 -31
-255 -32 -137 -1 -154 1 -202 23 -62 28 -146 113 -174 176 -67 151 -64 438 6
592 44 96 154 187 255 208 92 20 265 -6 358 -54 80 -41 81 -40 133 94 54 137
56 130 -40 166 -116 43 -204 60 -331 64 -69 2 -146 0 -172 -5z"/>
<path d="M7900 5648 c-1 -24 -2 -1341 -1 -1410 l1 -98 165 0 165 0 -2 285 c-3
315 -8 295 65 294 104 -1 111 -6 179 -109 128 -197 288 -454 288 -462 0 -4 83
-8 185 -8 102 0 185 2 185 5 0 3 -96 148 -214 323 l-214 318 56 29 c161 85
255 276 224 459 -23 144 -98 242 -233 309 -110 54 -216 67 -566 67 -156 0
-283 -1 -283 -2z m648 -294 c42 -21 63 -40 79 -69 30 -53 31 -133 2 -193 -19
-38 -32 -49 -88 -76 -61 -29 -76 -31 -188 -34 l-123 -4 0 200 c0 109 3 202 8
207 4 4 62 5 130 2 109 -4 129 -8 180 -33z"/>
<path d="M9696 5618 c-8 -18 -53 -141 -100 -273 -48 -132 -107 -292 -131 -355
-24 -63 -78 -209 -118 -325 -41 -115 -100 -280 -131 -365 -31 -85 -56 -156
-56 -157 0 -2 78 -3 173 -3 l172 0 18 63 c10 34 34 113 53 175 l35 112 287 0
c203 0 291 -3 299 -11 7 -7 36 -85 65 -175 l53 -164 178 0 c97 0 177 2 177 5
0 7 -69 195 -125 340 -70 181 -204 543 -265 715 -27 74 -70 194 -97 265 -28
72 -53 142 -57 158 l-6 27 -206 0 -205 0 -13 -32z m253 -351 c18 -59 61 -195
96 -302 36 -107 65 -197 65 -200 0 -2 -90 -6 -200 -7 -115 -2 -200 1 -200 6 0
5 38 127 85 270 46 144 90 282 97 308 7 27 15 45 19 40 4 -4 21 -55 38 -115z"/>
<path d="M10868 5644 c-11 -10 -10 -1476 1 -1492 7 -11 70 -13 337 -10 315 4
333 6 414 30 140 41 215 83 313 177 105 101 153 188 187 335 20 84 22 115 17
248 -3 97 -11 175 -21 213 -52 185 -169 328 -336 408 -167 81 -216 89 -585 94
-176 3 -323 1 -327 -3z m674 -283 c109 -42 182 -119 229 -240 18 -45 23 -84
27 -192 6 -199 -21 -299 -108 -393 -86 -93 -183 -127 -374 -129 l-121 -2 -3
480 c-1 264 0 486 3 494 9 23 275 10 347 -18z"/>
<path d="M12338 5642 c-2 -4 -2 -46 0 -93 l3 -86 42 -20 c23 -12 59 -26 79
-33 21 -6 40 -16 43 -21 8 -11 7 -981 -1 -988 -3 -3 -42 -19 -87 -36 l-82 -31
-3 -97 -3 -97 346 0 346 0 -3 97 -3 96 -85 31 -85 32 -3 491 c-2 385 1 493 10
500 7 6 36 18 63 27 28 9 64 25 81 35 31 19 31 20 32 100 0 45 -4 84 -9 87
-14 8 -678 15 -681 6z"/>
<path d="M16720 5628 c-29 -70 -256 -685 -300 -813 -20 -60 -56 -157 -78 -215
-51 -131 -162 -440 -162 -451 0 -5 78 -9 173 -9 l172 0 54 175 54 175 288 0
c264 0 287 -1 294 -17 31 -79 105 -285 111 -306 l6 -27 179 0 178 0 -18 53
c-10 28 -43 115 -74 192 -30 77 -89 235 -132 350 -43 116 -126 342 -186 502
-60 161 -109 295 -109 297 0 3 -9 30 -21 61 l-20 55 -200 0 c-197 0 -200 0
-209 -22z m240 -333 c13 -44 56 -180 97 -303 40 -122 73 -225 73 -227 0 -2
-90 -6 -201 -7 l-201 -3 6 30 c4 17 42 140 86 275 44 135 84 265 90 289 6 24
15 40 19 35 4 -5 18 -45 31 -89z"/>
<path d="M17877 5643 c-4 -3 -7 -343 -7 -755 l0 -748 165 0 165 0 2 288 3 287
50 3 c28 2 68 1 90 -3 40 -5 41 -7 176 -218 74 -116 155 -244 180 -284 l44
-72 183 -1 c100 0 182 4 182 8 0 5 -13 27 -29 50 -116 159 -391 578 -387 588
3 7 24 23 48 35 67 34 102 65 146 127 51 73 72 145 72 246 -1 189 -64 302
-210 376 -132 66 -232 80 -586 80 -154 0 -284 -3 -287 -7z m596 -268 c79 -20
102 -38 133 -101 23 -46 26 -62 20 -106 -18 -135 -107 -188 -318 -188 l-108 0
0 205 0 205 108 0 c63 0 131 -6 165 -15z"/>
<path d="M19428 5642 l-118 -3 0 -749 0 -750 458 0 457 0 2 130 3 130 -293 2
-292 3 -3 193 -2 192 270 0 c209 0 270 3 270 13 0 6 1 66 2 132 l2 120 -272 3
-272 2 0 165 0 165 295 0 296 0 -3 128 -3 127 -340 0 c-187 0 -393 -1 -457 -3z"/>
</g>
</svg>

<?xml version="1.0" encoding="utf-8"?>
<svg id="svg2" viewBox="-674.906 -429.486 1456.271 971.889" xmlns="http://www.w3.org/2000/svg" xmlns:bx="https://boxy-svg.com">
  <desc>Source: openclipart.org/detail/209545</desc>
  <title>Demo - Cherry</title>
  <defs>
    <bx:export>
      <bx:file format="svg" href="#object-0" excluded="true"/>
      <bx:file format="svg" href="#object-1" path="Untitled 2.svg"/>
      <bx:file format="svg" href="#object-2" path="Untitled 3.svg"/>
      <bx:file format="svg" href="#object-3" path="Untitled 4.svg"/>
      <bx:file format="svg" href="#object-4" path="Untitled 5.svg"/>
      <bx:file format="svg" href="#object-0" path="Untitled 6.svg"/>
      <bx:file format="svg" href="#object-5" path="Untitled 7.svg"/>
      <bx:file format="svg" href="#object-6" path="Untitled 8.svg"/>
      <bx:file format="svg" href="#object-7" path="Untitled 9.svg"/>
      <bx:file format="svg" href="#object-8" path="Untitled 10.svg"/>
      <bx:file format="svg" href="#object-9" path="Untitled 11.svg"/>
      <bx:file format="svg" href="#object-10" path="Untitled 12.svg"/>
      <bx:file format="svg" href="#object-11" path="Untitled 13.svg"/>
      <bx:file format="svg" href="#object-12" path="Untitled 14.svg"/>
      <bx:file format="svg" href="#object-13" path="Untitled 15.svg"/>
      <bx:file format="svg" href="#object-14" path="Untitled 16.svg"/>
    </bx:export>
  </defs>
  <g transform="matrix(0.1, 0, 0, -0.1, -1344.842549, 862.315443)" fill="#000000" stroke="none">
    <g>
      <a>
        <path d="M 13880 12374 C 13644 12347 13514 12320 13272 12251 C 12825 12122 12363 11838 12014 11479 C 11763 11219 11584 10944 11416 10557 C 11275 10234 11189 9807 11189 9435 C 11189 8795 11383 8215 11782 7660 C 11941 7439 12214 7176 12471 6998 C 12889 6708 13367 6534 13878 6485 C 14380 6437 14896 6524 15365 6738 C 15813 6942 16248 7301 16540 7710 C 16608 7805 16735 8010 16758 8063 C 16786 8127 16760 8218 16705 8244 C 16629 8280 16556 8257 16514 8182 C 16417 8010 16388 7964 16321 7870 C 16212 7716 16136 7628 15985 7482 C 15854 7355 15672 7212 15534 7128 C 15251 6956 14887 6825 14535 6769 C 14350 6740 13986 6737 13810 6764 C 13416 6823 13095 6935 12755 7133 C 12613 7215 12384 7396 12256 7528 C 12057 7731 11996 7810 11846 8055 C 11622 8423 11496 8823 11461 9280 C 11444 9492 11481 9847 11544 10098 C 11634 10450 11820 10820 12055 11110 C 12165 11246 12381 11460 12500 11552 C 12830 11806 13203 11980 13591 12059 C 13832 12109 14222 12124 14474 12095 C 14954 12038 15414 11844 15811 11529 C 15986 11391 16229 11131 16341 10964 C 16425 10838 16478 10754 16498 10713 C 16510 10691 16535 10659 16555 10642 C 16586 10615 16598 10610 16644 10610 C 16694 10610 16700 10613 16734 10650 C 16764 10684 16770 10697 16770 10735 C 16770 10760 16764 10795 16757 10813 C 16721 10899 16542 11162 16410 11325 C 16348 11401 16098 11651 16022 11713 C 15800 11894 15509 12066 15253 12169 C 15063 12246 14788 12320 14560 12355 C 14460 12371 13972 12385 13880 12374 Z" style="fill: rgb(74, 127, 169);" id="object-1"/>
        <path d="M 13980 11680 C 13842 11667 13752 11652 13605 11619 C 13433 11579 13358 11552 13182 11469 C 12944 11356 12745 11227 12686 11147 C 12644 11091 12672 10992 12740 10957 C 12799 10927 12838 10939 12945 11019 C 13102 11137 13305 11244 13495 11308 C 13749 11393 14061 11434 14298 11412 C 14668 11379 15048 11238 15325 11033 C 15375 10997 15478 10903 15556 10826 C 15699 10682 15797 10550 15886 10383 C 15935 10289 15968 10260 16026 10260 C 16113 10260 16160 10307 16160 10395 C 16160 10474 16063 10645 15899 10853 C 15697 11110 15458 11299 15145 11451 C 14919 11560 14698 11629 14460 11664 C 14326 11684 14102 11691 13980 11680 Z" style="fill: rgb(74, 127, 169);" id="object-2"/>
        <path d="M 12253 10629 C 12215 10618 12187 10583 12131 10480 C 12053 10334 11954 10055 11921 9890 C 11909 9831 11885 9632 11875 9510 C 11867 9409 11885 9171 11915 9001 C 11946 8825 12021 8598 12106 8425 C 12179 8276 12209 8241 12271 8230 C 12405 8205 12470 8329 12391 8456 C 12317 8577 12226 8821 12190 8994 C 12092 9474 12158 9966 12373 10355 C 12437 10470 12445 10524 12406 10575 C 12365 10628 12313 10647 12253 10629 Z" style="fill: rgb(74, 127, 169);" id="object-3"/>
        <path d="M 13234 10530 C 13067 10486 12993 10418 12955 10270 C 12924 10152 12953 10043 13042 9945 C 13094 9887 13158 9850 13244 9825 C 13375 9787 13586 9828 13711 9915 C 13770 9956 14040 10215 14040 10230 C 14040 10246 13884 10384 13814 10430 C 13741 10478 13636 10518 13532 10539 C 13451 10556 13315 10551 13234 10530 Z" style="fill: rgb(74, 127, 169);" id="object-4"/>
        <path d="M 14745 10536 C 14629 10509 14517 10461 14445 10408 C 14407 10379 14265 10245 14130 10110 C 13882 9860 13818 9808 13679 9739 C 13582 9690 13491 9670 13368 9670 C 13231 9670 13134 9699 13026 9771 C 12935 9832 12893 9881 12843 9985 C 12807 10060 12805 10071 12805 10160 C 12805 10212 12808 10267 12813 10283 C 12825 10326 12809 10315 12754 10243 C 12692 10162 12662 10102 12626 9995 C 12549 9765 12574 9551 12706 9326 C 12756 9240 12757 9239 13502 8488 C 13891 8095 13919 8068 13985 8038 C 14102 7984 14212 7989 14336 8056 C 14394 8087 15460 9150 15535 9251 C 15594 9331 15641 9425 15672 9520 C 15692 9585 15695 9616 15695 9745 C 15695 9886 15693 9900 15663 9990 C 15612 10146 15521 10277 15391 10380 C 15314 10442 15243 10479 15130 10515 C 15026 10549 14844 10559 14745 10536 Z" style="fill: rgb(74, 127, 169);" id="object-0"/>
        <path d="M 15959 8575 C 15945 8568 15921 8537 15905 8508 C 15746 8213 15516 7952 15265 7783 C 14999 7604 14742 7505 14410 7454 C 13912 7377 13344 7534 12902 7872 C 12853 7909 12831 7920 12802 7920 C 12726 7920 12670 7860 12670 7777 C 12670 7724 12688 7698 12768 7636 C 12995 7462 13253 7332 13522 7256 C 13775 7184 13844 7175 14150 7175 C 14462 7175 14543 7186 14785 7259 C 15163 7374 15455 7548 15736 7828 C 15945 8035 16160 8353 16160 8453 C 16160 8556 16049 8624 15959 8575 Z M 12841 7613 C 12854 7597 12853 7596 12838 7609 C 12821 7622 12816 7630 12824 7630 C 12826 7630 12834 7622 12841 7613 Z" style="fill: rgb(74, 127, 169);" id="object-5"/>
        <path d="M 13805 5664 C 13673 5643 13529 5580 13443 5505 C 13357 5429 13275 5290 13238 5152 C 13220 5087 13217 5045 13216 4885 C 13215 4665 13224 4619 13295 4474 C 13418 4224 13697 4089 14032 4120 C 14148 4131 14214 4147 14292 4182 C 14526 4290 14645 4477 14672 4780 C 14695 5035 14643 5258 14522 5423 C 14472 5489 14439 5518 14347 5572 C 14233 5639 14141 5662 13975 5665 C 13898 5667 13822 5666 13805 5664 Z M 14065 5388 C 14242 5343 14332 5171 14333 4875 C 14333 4738 14318 4655 14278 4577 C 14247 4516 14175 4445 14117 4419 C 14072 4398 14050 4395 13945 4395 C 13837 4395 13820 4397 13770 4421 C 13677 4465 13615 4543 13577 4665 C 13559 4724 13555 4759 13555 4890 C 13555 5057 13566 5113 13617 5213 C 13698 5373 13866 5439 14065 5388 Z" style="" id="object-6"/>
        <path d="M 15508 5660 C 15323 5627 15186 5550 15081 5421 C 14886 5182 14855 4736 15013 4437 C 15063 4342 15161 4250 15271 4196 C 15386 4139 15479 4120 15638 4120 C 15754 4120 15866 4137 15993 4175 L 16050 4191 L 16050 4326 C 16050 4400 16047 4460 16043 4460 C 16038 4460 15988 4446 15930 4428 C 15833 4399 15813 4397 15675 4396 C 15538 4395 15521 4397 15473 4419 C 15411 4447 15327 4532 15299 4595 C 15232 4746 15235 5033 15305 5187 C 15349 5283 15459 5374 15560 5395 C 15652 5415 15825 5389 15918 5341 C 15998 5300 15999 5301 16051 5435 C 16105 5572 16107 5565 16011 5601 C 15895 5644 15807 5661 15680 5665 C 15611 5667 15534 5665 15508 5660 Z" style="" id="object-7"/>
        <path d="M 7900 5648 C 7899 5624 7898 4307 7899 4238 L 7900 4140 L 8065 4140 L 8230 4140 L 8228 4425 C 8225 4740 8220 4720 8293 4719 C 8397 4718 8404 4713 8472 4610 C 8600 4413 8760 4156 8760 4148 C 8760 4144 8843 4140 8945 4140 C 9047 4140 9130 4142 9130 4145 C 9130 4148 9034 4293 8916 4468 L 8702 4786 L 8758 4815 C 8919 4900 9013 5091 8982 5274 C 8959 5418 8884 5516 8749 5583 C 8639 5637 8533 5650 8183 5650 C 8027 5650 7900 5649 7900 5648 Z M 8548 5354 C 8590 5333 8611 5314 8627 5285 C 8657 5232 8658 5152 8629 5092 C 8610 5054 8597 5043 8541 5016 C 8480 4987 8465 4985 8353 4982 L 8230 4978 L 8230 5178 C 8230 5287 8233 5380 8238 5385 C 8242 5389 8300 5390 8368 5387 C 8477 5383 8497 5379 8548 5354 Z" style="" id="object-8"/>
        <path d="M 9696 5618 C 9688 5600 9643 5477 9596 5345 C 9548 5213 9489 5053 9465 4990 C 9441 4927 9387 4781 9347 4665 C 9306 4550 9247 4385 9216 4300 C 9185 4215 9160 4144 9160 4143 C 9160 4141 9238 4140 9333 4140 L 9505 4140 L 9523 4203 C 9533 4237 9557 4316 9576 4378 L 9611 4490 L 9898 4490 C 10101 4490 10189 4487 10197 4479 C 10204 4472 10233 4394 10262 4304 L 10315 4140 L 10493 4140 C 10590 4140 10670 4142 10670 4145 C 10670 4152 10601 4340 10545 4485 C 10475 4666 10341 5028 10280 5200 C 10253 5274 10210 5394 10183 5465 C 10155 5537 10130 5607 10126 5623 L 10120 5650 L 9914 5650 L 9709 5650 L 9696 5618 Z M 9949 5267 C 9967 5208 10010 5072 10045 4965 C 10081 4858 10110 4768 10110 4765 C 10110 4763 10020 4759 9910 4758 C 9795 4756 9710 4759 9710 4764 C 9710 4769 9748 4891 9795 5034 C 9841 5178 9885 5316 9892 5342 C 9899 5369 9907 5387 9911 5382 C 9915 5378 9932 5327 9949 5267 Z" style="" id="object-9"/>
        <path d="M 10868 5644 C 10857 5634 10858 4168 10869 4152 C 10876 4141 10939 4139 11206 4142 C 11521 4146 11539 4148 11620 4172 C 11760 4213 11835 4255 11933 4349 C 12038 4450 12086 4537 12120 4684 C 12140 4768 12142 4799 12137 4932 C 12134 5029 12126 5107 12116 5145 C 12064 5330 11947 5473 11780 5553 C 11613 5634 11564 5642 11195 5647 C 11019 5650 10872 5648 10868 5644 Z M 11542 5361 C 11651 5319 11724 5242 11771 5121 C 11789 5076 11794 5037 11798 4929 C 11804 4730 11777 4630 11690 4536 C 11604 4443 11507 4409 11316 4407 L 11195 4405 L 11192 4885 C 11191 5149 11192 5371 11195 5379 C 11204 5402 11470 5389 11542 5361 Z" style="" id="object-10"/>
        <path d="M 12338 5642 C 12336 5638 12336 5596 12338 5549 L 12341 5463 L 12383 5443 C 12406 5431 12442 5417 12462 5410 C 12483 5404 12502 5394 12505 5389 C 12513 5378 12512 4408 12504 4401 C 12501 4398 12462 4382 12417 4365 L 12335 4334 L 12332 4237 L 12329 4140 L 12675 4140 L 13021 4140 L 13018 4237 L 13015 4333 L 12930 4364 L 12845 4396 L 12842 4887 C 12840 5272 12843 5380 12852 5387 C 12859 5393 12888 5405 12915 5414 C 12943 5423 12979 5439 12996 5449 C 13027 5468 13027 5469 13028 5549 C 13028 5594 13024 5633 13019 5636 C 13005 5644 12341 5651 12338 5642 Z" style="" id="object-11"/>
        <path d="M 16720 5628 C 16691 5558 16464 4943 16420 4815 C 16400 4755 16364 4658 16342 4600 C 16291 4469 16180 4160 16180 4149 C 16180 4144 16258 4140 16353 4140 L 16525 4140 L 16579 4315 L 16633 4490 L 16921 4490 C 17185 4490 17208 4489 17215 4473 C 17246 4394 17320 4188 17326 4167 L 17332 4140 L 17511 4140 L 17689 4140 L 17671 4193 C 17661 4221 17628 4308 17597 4385 C 17567 4462 17508 4620 17465 4735 C 17422 4851 17339 5077 17279 5237 C 17219 5398 17170 5532 17170 5534 C 17170 5537 17161 5564 17149 5595 L 17129 5650 L 16929 5650 C 16732 5650 16729 5650 16720 5628 Z M 16960 5295 C 16973 5251 17016 5115 17057 4992 C 17097 4870 17130 4767 17130 4765 C 17130 4763 17040 4759 16929 4758 L 16728 4755 L 16734 4785 C 16738 4802 16776 4925 16820 5060 C 16864 5195 16904 5325 16910 5349 C 16916 5373 16925 5389 16929 5384 C 16933 5379 16947 5339 16960 5295 Z" style="" id="object-12"/>
        <path d="M 17877 5643 C 17873 5640 17870 5300 17870 4888 L 17870 4140 L 18035 4140 L 18200 4140 L 18202 4428 L 18205 4715 L 18255 4718 C 18283 4720 18323 4719 18345 4715 C 18385 4710 18386 4708 18521 4497 C 18595 4381 18676 4253 18701 4213 L 18745 4141 L 18928 4140 C 19028 4140 19110 4144 19110 4148 C 19110 4153 19097 4175 19081 4198 C 18965 4357 18690 4776 18694 4786 C 18697 4793 18718 4809 18742 4821 C 18809 4855 18844 4886 18888 4948 C 18939 5021 18960 5093 18960 5194 C 18959 5383 18896 5496 18750 5570 C 18618 5636 18518 5650 18164 5650 C 18010 5650 17880 5647 17877 5643 Z M 18473 5375 C 18552 5355 18575 5337 18606 5274 C 18629 5228 18632 5212 18626 5168 C 18608 5033 18519 4980 18308 4980 L 18200 4980 L 18200 5185 L 18200 5390 L 18308 5390 C 18371 5390 18439 5384 18473 5375 Z" style="" id="object-13"/>
        <path d="M 19428 5642 L 19310 5639 L 19310 4890 L 19310 4140 L 19768 4140 L 20225 4140 L 20227 4270 L 20230 4400 L 19937 4402 L 19645 4405 L 19642 4598 L 19640 4790 L 19910 4790 C 20119 4790 20180 4793 20180 4803 C 20180 4809 20181 4869 20182 4935 L 20184 5055 L 19912 5058 L 19640 5060 L 19640 5225 L 19640 5390 L 19935 5390 L 20231 5390 L 20228 5518 L 20225 5645 L 19885 5645 C 19698 5645 19492 5644 19428 5642 Z" style="" id="object-14"/>
      </a>
    </g>
  </g>
</svg>
